!! "Walking in the Void", (metrically expanded piece) No. 122 from
!! Jonathan Condit, 'Music of the Korean Renaissance; Songs and dances of the
!! fifteenth century',
!! London: Cambridge University Press, 1984, ISBN 0 521 24399 8; pp.312-314
!! NOTE: The D.S. al Fine (bars 9 to 36) has been expanded in full in
!!       this encoding.
!! pluck flute
!! str.
**kern	**kern
*M12/8	*M12/8
=1	=1
4.AA-	2.a-
4.AA-	.
4AA-	{4a-
8FF	8f
4.AA-	4.a-}
=2	=2
4.C	2.cc
4.C	.
4C	{4cc
8BB-	8b-
4.C	4.cc}
=3	=3
4.E-	1.ee-
4.E-	.
4.E-	.
4.E-	.
=4	=4
4.E-	1.ee-
4.E-	.
4.E-	.
4.EE- 4.BB-	.
=5	=5
4.AA-	{2.a-
4.AA-	.
8FF	8b-
8BB-	8cc
8AA-	8b-
8BB-	4.f}
8AA-	.
8FF	.
=6	=6
4.C	2.cc
4.C	.
4C	{4cc
8BB-	8b-
4.C	4.cc}
=7	=7
4.F	4.ff
8F	{8ff
8A-	8aa-
8F	8ff
4.E-	2.ee-}
4.E-	.
=8	=8
4E-	{4ee-
8C	8cc
4.E-	4.ee-
8F	8ff
8A-	8aa-
8F	8ff
8E-	8ee-
8F	8ff
8E-	8ee-}
=9	=9
4.C	2.cc
4.C	.
4BB-	{4.cc
8E-	.
4C	8b-
.	8cc
8BB-	8b-}
=10	=10
4.AA-	2.a-
4.AA-	.
8FF	{8a-
8BB-	8b-
8AA-	8a-
8BB-	4.f}
8AA-	.
8FF	.
=11	=11
4.BB-	2.b-
4BB-	.
8C	.
4.BB-	2.b-
4.BB-	.
=12	=12
8C	{8cc
8BB-	8b-
8AA-	8a-
8BB-	4.b-
8AA-	.
8BB-	.
8C	8cc
8E-	8ee-
8C	8cc
8BB-	8b-
8C	8cc
8BB-	8b-}
=13	=13
4.AA-	2.a-
4.AA-	.
8FF	{8a-
8BB-	8b-
8AA-	8a-
8BB-	4.f}
8AA-	.
8FF	.
=14	=14
4.C	{2.cc
4.C	.
8F	8ff
8E-	8ee-
8C	8cc
8BB-	8ee-
8C	8cc
8BB-	8b-}
=15	=15
4.AA-	{4.a-
4AA-	4.cc
8C	.
4.BB-	2.b-}
4BB-	.
8C	.
=16	=16
4.BB-	{2.b-
4.BB-	.
4.AA-	[4.a-
4AA-	4a-]
8C	8cc}
=17	=17
4.BB-	2.b-
4.BB-	.
8AA-	{8b-
8C	8cc
8BB-	8b-
8C	4.a-}
8BB-	.
8AA-	.
=18	=18
4.C	2.cc
4.C	.
4C	{4cc
8BB-	8b-
4.C	4.cc}
=19	=19
4.E-	1.ee-
4.E-	.
4.E-	.
4.EE- 4.BB-	.
=20	=20
4E-	{4ee-
8C	8cc
4.E-	4.ee-
8F	8ff
8A-	8aa-
8F	8ff
8E-	8ee-
8F	8ff
8E-	8ee-}
=21	=21
4.C	{2.cc
4.C	.
4BB-	8ff
.	8ee-
8E-	8cc
4C	8b-
.	8cc
8BB-	8b-}
=22	=22
4.AA-	2.a-
4.AA-	.
8FF	{8a-
8BB-	8b-
8AA-	8a-
8BB-	4.f}
8AA-	.
8FF	.
=23	=23
4BB-	{4.b-
8E-	.
4D-	4cc
8BB-	8b-
4.AA-	2.a-}
4AA-	.
8BB-	.
=24	=24
4.AA-	{2.a-
4.AA-	.
8BB-	4.b-
8C	.
8BB-	.
8AA-	8a-
8BB-	8b-
8AA-	8a-}
=25	=25
4FF	{4f
8EE-	8e-
4.FF	4.f
4.AA-	2.a-}
8AA-	.
8BB-	.
8AA-	.
=26	=26
4FF	{4f
8EE-	8e-
4.FF	4.f
8FF	4a-
8AA-	.
8BB-	8b-
4AA-	4a-
8FF	8f
=27	=27
4.EE-	1.e-}
4.EE-	.
4.EE-	.
4.EE- 4.BB-	.
=28	=28
4.EE-	1.e-
4.EE-	.
4.EE-	.
4.EE- 4.BB-	.
=29	=29
4.FF	2.f
4.FF	.
4FF	{4f
8EE-	8e-
4.FF	4.f}
=30	=30
4.AA-	2.a-
4.AA-	.
8FF	{8a-
8BB-	8b-
8AA-	8a-
8BB-	4.f}
8AA-	.
8FF	.
=31	=31
4.E-	2.ee-
4.E-	.
4.E-	{8ee-
.	4ff
4.E-	8aa-
.	8ff
.	8ee-}
=32	=32
4.D-	2.dd-
4.D-	.
4D-	{4dd-
8BB-	8b-
4.D-	4.dd-}
=33	=33
4.FF	{2.f
4.FF	.
4.BB-	2.b-}
4.BB-	.
=34	=34
8C	{8b-
8BB-	4a-
8AA-	.
8BB-	4.b-
8AA-	.
8BB-	.
8C	4.cc
8E-	.
8C	.
8BB-	4.b-}
8C	.
8BB-	.
=35	=35
4.AA-	1.a-
4.AA-	.
4.AA-	.
4.AA-	.
=36	=36
4.AA-	{2.a-
4.AA-	.
4BB-	4.b-
8E-	.
4D-	4cc
8BB-	8b-}
=37	=37
4.E-	1.e-
4E-	.
8F	.
4.E-	.
4.E-	.
=38	=38
4.F	2.f
4.F	.
8A-	{4f
8F	.
8E-	8e-
8F	4.f}
8E-	.
8F	.
=39	=39
4.A-	[{2.a-
4.A-	.
4.A-	4.a-]
4.EE- 4.BB-	4.f}
=40	=40
8A-	{4.a-
8F	.
8A-	.
8B-	4.b-
8F	.
8B-	.
8F	8a-
8B-	8b-
8A-	8a-
8B-	4.f}
8A-	.
8F	.
=41	=41
4.B-	2.b-
4.B-	.
4B-	{4.b-
8e-	.
4c	4cc
8B-	8b-}
=42	=42
4A-	{4.a-
8B-	.
4c	4.cc
8c	.
8B-	8b-
8c	8cc
8B-	8b-
8A-	8a-
8B-	8b-
8A-	8a-}
=43	=43
8F	{8a-
8E-	4b-
8F	.
8B-	4a-
8A-	.
8F	8f
4.E-	2.e-}
4E-	.
8F	.
=44	=44
4.E-	1.e-
4.E-	.
4.E-	.
4.EE- 4.BB-	.
!! Dal Segno al Fine (bars 9 to 36 repeated).
=45	=45
4.C	2.cc
4.C	.
4BB-	{4.cc
8E-	.
4C	8b-
.	8cc
8BB-	8b-}
=46	=46
4.AA-	2.a-
4.AA-	.
8FF	{8a-
8BB-	8b-
8AA-	8a-
8BB-	4.f}
8AA-	.
8FF	.
=47	=47
4.BB-	2.b-
4BB-	.
8C	.
4.BB-	2.b-
4.BB-	.
=48	=48
8C	{8cc
8BB-	8b-
8AA-	8a-
8BB-	4.b-
8AA-	.
8BB-	.
8C	8cc
8E-	8ee-
8C	8cc
8BB-	8b-
8C	8cc
8BB-	8b-}
=49	=49
4.AA-	2.a-
4.AA-	.
8FF	{8a-
8BB-	8b-
8AA-	8a-
8BB-	4.f}
8AA-	.
8FF	.
=50	=50
4.C	{2.cc
4.C	.
8F	8ff
8E-	8ee-
8C	8cc
8BB-	8ee-
8C	8cc
8BB-	8b-}
=51	=51
4.AA-	{4.a-
4AA-	4.cc
8C	.
4.BB-	2.b-}
4BB-	.
8C	.
=52	=52
4.BB-	{2.b-
4.BB-	.
4.AA-	[4.a-
4AA-	4a-]
8C	8cc}
=53	=53
4.BB-	2.b-
4.BB-	.
8AA-	{8b-
8C	8cc
8BB-	8b-
8C	4.a-}
8BB-	.
8AA-	.
=54	=54
4.C	2.cc
4.C	.
4C	{4cc
8BB-	8b-
4.C	4.cc}
=55	=55
4.E-	1.ee-
4.E-	.
4.E-	.
4.EE- 4.BB-	.
=56	=56
4E-	{4ee-
8C	8cc
4.E-	4.ee-
8F	8ff
8A-	8aa-
8F	8ff
8E-	8ee-
8F	8ff
8E-	8ee-}
=57	=57
4.C	{2.cc
4.C	.
4BB-	8ff
.	8ee-
8E-	8cc
4C	8b-
.	8cc
8BB-	8b-}
=58	=58
4.AA-	2.a-
4.AA-	.
8FF	{8a-
8BB-	8b-
8AA-	8a-
8BB-	4.f}
8AA-	.
8FF	.
=59	=59
4BB-	{4.b-
8E-	.
4D-	4cc
8BB-	8b-
4.AA-	2.a-}
4AA-	.
8BB-	.
=60	=60
4.AA-	{2.a-
4.AA-	.
8BB-	4.b-
8C	.
8BB-	.
8AA-	8a-
8BB-	8b-
8AA-	8a-}
=61	=61
4FF	{4f
8EE-	8e-
4.FF	4.f
4.AA-	2.a-}
8AA-	.
8BB-	.
8AA-	.
=62	=62
4FF	{4f
8EE-	8e-
4.FF	4.f
8FF	4a-
8AA-	.
8BB-	8b-
4AA-	4a-
8FF	8f
=63	=63
4.EE-	1.e-}
4.EE-	.
4.EE-	.
4.EE- 4.BB-	.
=64	=64
4.EE-	1.e-
4.EE-	.
4.EE-	.
4.EE- 4.BB-	.
=65	=65
4.FF	2.f
4.FF	.
4FF	{4f
8EE-	8e-
4.FF	4.f}
=66	=66
4.AA-	2.a-
4.AA-	.
8FF	{8a-
8BB-	8b-
8AA-	8a-
8BB-	4.f}
8AA-	.
8FF	.
=67	=67
4.E-	2.ee-
4.E-	.
4.E-	{8ee-
.	4ff
4.E-	8aa-
.	8ff
.	8ee-}
=68	=68
4.D-	2.dd-
4.D-	.
4D-	{4dd-
8BB-	8b-
4.D-	4.dd-}
=69	=69
4.FF	{2.f
4.FF	.
4.BB-	2.b-}
4.BB-	.
=70	=70
8C	{8b-
8BB-	4a-
8AA-	.
8BB-	4.b-
8AA-	.
8BB-	.
8C	4.cc
8E-	.
8C	.
8BB-	4.b-}
8C	.
8BB-	.
=71	=71
4.AA-	1.a-
4.AA-	.
4.AA-	.
4.AA-	.
=72	=72
4.AA-	1.a-
4.AA-	.
4.AA-	.
4.AA-	.
====	====
*-	*-
